material/.icons/material/tractor.svg

<svg xmlns="http://www.w3.org/2000/svg" viewBox="0 0 24 24"><path d="M5 4v7.26c-1.8.64-3 2.34-3 4.24C2 18 4 20 6.5 20c2.29 0 4.21-1.72 4.47-4h4.2c-.11.32-.17.66-.17 1a3 3 0 003 3 3 3 0 003-3c0-.34-.06-.68-.18-1H22v-3c0-1.11-.89-2-2-2h-4.96l-1.39-7H5m2 2h5l1 5v3h-2.26A4.53 4.53 0 007 11.03V6m-.5 7.25a2.25 2.25 0 012.25 2.25 2.25 2.25 0 01-2.25 2.25 2.25 2.25 0 01-2.25-2.25 2.25 2.25 0 012.25-2.25M18 15.5a1.5 1.5 0 011.5 1.5 1.5 1.5 0 01-1.5 1.5 1.5 1.5 0 01-1.5-1.5 1.5 1.5 0 011.5-1.5z"/></svg>

<?xml version="1.0" encoding="UTF-8"?><!DOCTYPE svg PUBLIC "-//W3C//DTD SVG 1.1//EN" "http://www.w3.org/Graphics/SVG/1.1/DTD/svg11.dtd"><svg xmlns="http://www.w3.org/2000/svg" xmlns:xlink="http://www.w3.org/1999/xlink" version="1.1" id="mdi-tractor" width="24" height="24" viewBox="0 0 24 24"><path d="M5,4V11.26C3.2,11.9 2,13.6 2,15.5C2,18 4,20 6.5,20C8.79,20 10.71,18.28 10.97,16H15.17C15.06,16.32 15,16.66 15,17A3,3 0 0,0 18,20A3,3 0 0,0 21,17C21,16.66 20.94,16.32 20.82,16H22V13C22,11.89 21.11,11 20,11H15.04L13.65,4H5M7,6H12L13,11V14H10.74C10.16,12.38 8.71,11.23 7,11.03V6M6.5,13.25A2.25,2.25 0 0,1 8.75,15.5A2.25,2.25 0 0,1 6.5,17.75A2.25,2.25 0 0,1 4.25,15.5A2.25,2.25 0 0,1 6.5,13.25M18,15.5A1.5,1.5 0 0,1 19.5,17A1.5,1.5 0 0,1 18,18.5A1.5,1.5 0 0,1 16.5,17A1.5,1.5 0 0,1 18,15.5Z" /></svg>
